public/assets/security.svg

<svg fill="none" height="246" viewBox="0 0 260 246" width="260" xmlns="http://www.w3.org/2000/svg" xmlns:xlink="http://www.w3.org/1999/xlink"><filter id="a" color-interpolation-filters="sRGB" filterUnits="userSpaceOnUse" height="682" width="682" x="-231" y="-191"><feFlood flood-opacity="0" result="BackgroundImageFix"/><feBlend in="SourceGraphic" in2="BackgroundImageFix" mode="normal" result="shape"/><feGaussianBlur result="effect1_foregroundBlur_244_3322" stdDeviation="128"/></filter><linearGradient id="b"><stop offset=".15" stop-color="#2aabee"/><stop offset="1" stop-color="#0ccfcf"/></linearGradient><linearGradient id="c" gradientUnits="userSpaceOnUse" x1="25.1549" x2="194.845" xlink:href="#b" y1="144.87" y2="155.13"/><linearGradient id="d" gradientUnits="userSpaceOnUse" x1="38.1668" x2="211.874" xlink:href="#b" y1="179.082" y2="219.975"/><linearGradient id="e" gradientUnits="userSpaceOnUse" x1="92.0684" x2="166.806" xlink:href="#b" y1="142.129" y2="147.595"/><linearGradient id="f" gradientUnits="userSpaceOnUse" x1="81" x2="111" y1="144" y2="163.5"><stop offset="0" stop-color="#fff" stop-opacity=".6"/><stop offset="1" stop-color="#fff" stop-opacity="0"/></linearGradient><linearGradient id="g" gradientUnits="userSpaceOnUse" x1="131.5" x2="131.5" y1="113" y2="128"><stop offset="0" stop-color="#952cff"/><stop offset="1" stop-color="#952cff" stop-opacity="0"/></linearGradient><linearGradient id="h" gradientUnits="userSpaceOnUse" x1="112.032" x2="147.003" xlink:href="#b" y1="97.2628" y2="99.0678"/><linearGradient id="i" gradientUnits="userSpaceOnUse" x1="118.992" x2="118.992" y1="73" y2="122.436"><stop offset="0" stop-color="#fff"/><stop offset="1" stop-color="#fff" stop-opacity="0"/></linearGradient><linearGradient id="j" gradientUnits="userSpaceOnUse" x1="125" x2="136" y1="136.5" y2="160"><stop offset="0" stop-color="#952cff"/><stop offset="1" stop-color="#952cff" stop-opacity=".2"/></linearGradient><linearGradient id="k"><stop offset="0" stop-color="#fff"/><stop offset="1" stop-color="#fff" stop-opacity=".5"/></linearGradient><linearGradient id="l" gradientUnits="userSpaceOnUse" x1="191" x2="191" xlink:href="#k" y1="145" y2="169"/><linearGradient id="m" gradientUnits="userSpaceOnUse" x1="70" x2="70" xlink:href="#k" y1="97" y2="113"/><linearGradient id="n" gradientUnits="userSpaceOnUse" x1="74.0219" x2="97.9781" xlink:href="#b" y1="84.2758" y2="85.7242"/><g filter="url(#a)" opacity=".7"><circle cx="110" cy="150" fill="url(#c)" r="85"/></g><ellipse cx="129.5" cy="180.5" fill="url(#d)" opacity=".5" rx="91.5" ry="23.5"/><rect fill="url(#e)" height="62" rx="4" width="75" x="92" y="113"/><path clip-rule="evenodd" d="m96 113h11c7.18 0 13 5.82 13 13v13.979.021 3.023c-2.846 2.583-4.643 6.319-4.643 10.477 0 3.488 1.263 6.681 3.356 9.147-2.102 4.351-6.557 7.353-11.713 7.353h-15v-53c0-2.209 1.7909-4 4-4z" fill="url(#f)" fill-rule="evenodd"/><path clip-rule="evenodd" d="m154 113h-10v10c0 2.761 2.239 5 5 5s5-2.239 5-5zm-35 0v10c0 2.761-2.239 5-5 5s-5-2.239-5-5v-10z" fill="url(#g)" fill-opacity=".44" fill-rule="evenodd"/><path d="m147 119v-23.5c0-9.665-7.835-17.5-17.5-17.5-9.665 0-17.5 7.835-17.5 17.5v23.5" stroke="url(#h)" stroke-linecap="round" stroke-width="10"/><path clip-rule="evenodd" d="m130.983 73.0481c-12.272.7818-21.983 10.9827-21.983 23.4518v23.5001c0 .884-.23 1.715-.632 2.436-.848-.896-1.368-2.105-1.368-3.436v-23.5c0-12.4264 10.074-22.5 22.5-22.5.498 0 .993.0162 1.483.0481z" fill="url(#i)" fill-rule="evenodd" opacity=".5"/><path clip-rule="evenodd" d="m124.5 145.253c-2.784 1.691-4.643 4.752-4.643 8.247 0 5.326 4.317 9.643 9.643 9.643s9.643-4.317 9.643-9.643c0-3.495-1.86-6.556-4.643-8.247v-5.253c0-2.761-2.239-5-5-5s-5 2.239-5 5z" fill="url(#j)" fill-opacity=".44" fill-rule="evenodd"/><path d="m191 145 2.121 9.879 9.879 2.121-9.879 2.121-2.121 9.879-2.121-9.879-9.879-2.121 9.879-2.121z" fill="url(#l)"/><path d="m70 97 1.4142 6.586 6.5858 1.414-6.5858 1.414-1.4142 6.586-1.4142-6.586-6.5858-1.414 6.5858-1.414z" fill="url(#m)"/><path d="m86 73 2.1213 9.8787 9.8787 2.1213-9.8787 2.1213-2.1213 9.8787-2.1213-9.8787-9.8787-2.1213 9.8787-2.1213z" fill="url(#n)"/></svg>

<svg width="260" height="246" viewBox="0 0 260 246" fill="none" xmlns="http://www.w3.org/2000/svg">
<g style="mix-blend-mode:hard-light" opacity="0.7" filter="url(#filter0_f_244_3322)">
<circle cx="110" cy="150" r="85" fill="url(#paint0_linear_244_3322)"/>
</g>
<g style="mix-blend-mode:multiply" opacity="0.5">
<ellipse cx="129.5" cy="180.5" rx="91.5" ry="23.5" fill="url(#paint1_linear_244_3322)"/>
</g>
<rect x="92" y="113" width="75" height="62" rx="4" fill="url(#paint2_linear_244_3322)"/>
<g style="mix-blend-mode:overlay">
<path fill-rule="evenodd" clip-rule="evenodd" d="M96 113H107C114.18 113 120 118.82 120 126V139.979C120 139.986 120 139.993 120 140V143.023C117.154 145.606 115.357 149.342 115.357 153.5C115.357 156.988 116.62 160.181 118.713 162.647C116.611 166.998 112.156 170 107 170H92V117C92 114.791 93.7909 113 96 113Z" fill="url(#paint3_linear_244_3322)"/>
</g>
<path fill-rule="evenodd" clip-rule="evenodd" d="M154 113H144V123C144 125.761 146.239 128 149 128C151.761 128 154 125.761 154 123V113ZM119 113V123C119 125.761 116.761 128 114 128C111.239 128 109 125.761 109 123V113H119Z" fill="url(#paint4_linear_244_3322)" fill-opacity="0.44"/>
<path d="M147 119V95.5C147 85.835 139.165 78 129.5 78V78C119.835 78 112 85.835 112 95.5V119" stroke="url(#paint5_linear_244_3322)" stroke-width="10" stroke-linecap="round"/>
<g style="mix-blend-mode:overlay" opacity="0.5">
<path fill-rule="evenodd" clip-rule="evenodd" d="M130.983 73.0481C118.711 73.8299 109 84.0308 109 96.4999V120C109 120.884 108.77 121.715 108.368 122.436C107.52 121.54 107 120.331 107 119V95.5C107 83.0736 117.074 73 129.5 73C129.998 73 130.493 73.0162 130.983 73.0481Z" fill="url(#paint6_linear_244_3322)"/>
</g>
<g style="mix-blend-mode:multiply">
<path fill-rule="evenodd" clip-rule="evenodd" d="M124.5 145.253C121.716 146.944 119.857 150.005 119.857 153.5C119.857 158.826 124.174 163.143 129.5 163.143C134.826 163.143 139.143 158.826 139.143 153.5C139.143 150.005 137.283 146.944 134.5 145.253L134.5 140C134.5 137.239 132.261 135 129.5 135C126.739 135 124.5 137.239 124.5 140L124.5 145.253Z" fill="url(#paint7_linear_244_3322)" fill-opacity="0.44"/>
</g>
<path d="M191 145L193.121 154.879L203 157L193.121 159.121L191 169L188.879 159.121L179 157L188.879 154.879L191 145Z" fill="url(#paint8_linear_244_3322)"/>
<path d="M70 97L71.4142 103.586L78 105L71.4142 106.414L70 113L68.5858 106.414L62 105L68.5858 103.586L70 97Z" fill="url(#paint9_linear_244_3322)"/>
<path d="M86 73L88.1213 82.8787L98 85L88.1213 87.1213L86 97L83.8787 87.1213L74 85L83.8787 82.8787L86 73Z" fill="url(#paint10_linear_244_3322)"/>
<defs>
<filter id="filter0_f_244_3322" x="-231" y="-191" width="682" height="682" filterUnits="userSpaceOnUse" color-interpolation-filters="sRGB">
<feFlood flood-opacity="0" result="BackgroundImageFix"/>
<feBlend mode="normal" in="SourceGraphic" in2="BackgroundImageFix" result="shape"/>
<feGaussianBlur stdDeviation="128" result="effect1_foregroundBlur_244_3322"/>
</filter>
<linearGradient id="paint0_linear_244_3322" x1="25.1549" y1="144.87" x2="194.845" y2="155.13" gradientUnits="userSpaceOnUse">
<stop offset="0.15" stop-color="#2AABEE"/>
<stop offset="1" stop-color="#0CCFCF"/>
</linearGradient>
<linearGradient id="paint1_linear_244_3322" x1="38.1668" y1="179.082" x2="211.874" y2="219.975" gradientUnits="userSpaceOnUse">
<stop offset="0.15" stop-color="#2AABEE"/>
<stop offset="1" stop-color="#0CCFCF"/>
</linearGradient>
<linearGradient id="paint2_linear_244_3322" x1="92.0684" y1="142.129" x2="166.806" y2="147.595" gradientUnits="userSpaceOnUse">
<stop offset="0.15" stop-color="#2AABEE"/>
<stop offset="1" stop-color="#0CCFCF"/>
</linearGradient>
<linearGradient id="paint3_linear_244_3322" x1="81" y1="144" x2="111" y2="163.5" gradientUnits="userSpaceOnUse">
<stop stop-color="white" stop-opacity="0.6"/>
<stop offset="1" stop-color="white" stop-opacity="0"/>
</linearGradient>
<linearGradient id="paint4_linear_244_3322" x1="131.5" y1="113" x2="131.5" y2="128" gradientUnits="userSpaceOnUse">
<stop stop-color="#952CFF"/>
<stop offset="1" stop-color="#952CFF" stop-opacity="0"/>
</linearGradient>
<linearGradient id="paint5_linear_244_3322" x1="112.032" y1="97.2628" x2="147.003" y2="99.0678" gradientUnits="userSpaceOnUse">
<stop offset="0.15" stop-color="#2AABEE"/>
<stop offset="1" stop-color="#0CCFCF"/>
</linearGradient>
<linearGradient id="paint6_linear_244_3322" x1="118.992" y1="73" x2="118.992" y2="122.436" gradientUnits="userSpaceOnUse">
<stop stop-color="white"/>
<stop offset="1" stop-color="white" stop-opacity="0"/>
</linearGradient>
<linearGradient id="paint7_linear_244_3322" x1="125" y1="136.5" x2="136" y2="160" gradientUnits="userSpaceOnUse">
<stop stop-color="#952CFF"/>
<stop offset="1" stop-color="#952CFF" stop-opacity="0.2"/>
</linearGradient>
<linearGradient id="paint8_linear_244_3322" x1="191" y1="145" x2="191" y2="169" gradientUnits="userSpaceOnUse">
<stop stop-color="white"/>
<stop offset="1" stop-color="white" stop-opacity="0.5"/>
</linearGradient>
<linearGradient id="paint9_linear_244_3322" x1="70" y1="97" x2="70" y2="113" gradientUnits="userSpaceOnUse">
<stop stop-color="white"/>
<stop offset="1" stop-color="white" stop-opacity="0.5"/>
</linearGradient>
<linearGradient id="paint10_linear_244_3322" x1="74.0219" y1="84.2758" x2="97.9781" y2="85.7242" gradientUnits="userSpaceOnUse">
<stop offset="0.15" stop-color="#2AABEE"/>
<stop offset="1" stop-color="#0CCFCF"/>
</linearGradient>
</defs>
</svg>
